!!!COM: Mozart, Wolfgang Amadeus
!!!OTL: Musikalische Würfelspiele, Kontre-Tänze
!!!SCA: K<sup>6</sup> Anh. C30.01 (K<sup>3</sup> Anh. 294d)
**kern	**kern
*staff2	*staff2
*clefF4	*clefG2
*M2/4	*M2/4
*MM110	*MM110
*>[A,A1,A,A2,B]	*>[A,A1,A,A2,B]
*>norep[A,A2,B]	*>norep[A,A2,B]
*>A	*>A
=105	=105
4C	16cc
.	16b
.	16cc
.	16dd
4C	16ee
.	16dd
.	16ee
.	16ff
=152	=152
4C	8gg
.	16ccc
.	16gg
4r	8ee
.	8cc
=112	=112
4G	8ff
.	8dd
4GG	8b
.	8g
=35	=35
4C	16cc
.	16dd
.	16ee
.	16dd
4CC	16cc
.	16ee
.	16gg
.	16cc
=21	=21
4D	8d
.	16f#
.	16a
4C 4D	16dd
.	16ff#
.	16aa
.	16ff#
=30	=30
4BB 4G	8gg
.	8dd
4BB	(8dd
.	8dd#)
=143	=143
4C	8ee
.	8cc
4D	8a
.	8f#
=44	=44
*>A1	*>A1
4GG	4g 4b 4gg
16G	4r
16F	.
16E	.
16D	.
=44:|!	=44:|!
*>A2	*>A2
4GG	4g 4b 4gg
16GG	4r
16AA	.
16BB	.
16C#	.
=144||	=144||
*>B	*>B
4D	8d
.	16f#
.	16a
4D	8dd
.	8ff#
=157	=157
4G	16gg
.	16aa
.	16bb
.	16ccc
4GG	4ddd
=138	=138
16C	8gg
16E	.
16G	4ee
16E	.
16C	.
16E	.
16G	8cc
16E	.
=141	=141
4G	8dd
.	8b
4GG	8g
.	8b
=128	=128
16C	8g
16G	.
16E	4cc
16G	.
16C	.
16G	.
16E	8ee
16G	.
=48	=48
4C	8cc
.	16cc
.	16ee
4r	8gg
.	16gg
.	16ee
=159	=159
4G	8dd
.	4ff
4GG	.
.	16dd
.	16b
=65	=65
4C	8cc
.	8cc
4CC	4cc
==	==
*-	*-
